public/linkdin-mobile.svg

<svg width="24" height="24" viewBox="0 0 24 24" fill="none" xmlns="http://www.w3.org/2000/svg">
<circle cx="12" cy="12.0005" r="11.7" fill="#075430" stroke="white" stroke-width="0.6"/>
<path d="M9.21464 8.26758C9.21451 8.55046 9.10825 8.8217 8.91924 9.02163C8.73023 9.22156 8.47396 9.3338 8.20679 9.33365C7.93963 9.33351 7.68346 9.221 7.49464 9.02088C7.30582 8.82075 7.19982 8.5494 7.19995 8.26651C7.20008 7.98363 7.30634 7.71239 7.49535 7.51246C7.68436 7.31254 7.94064 7.2003 8.2078 7.20044C8.47496 7.20058 8.73113 7.31309 8.91995 7.51322C9.10877 7.71335 9.21478 7.9847 9.21464 8.26758ZM9.24486 10.1235H7.23017V16.8004H9.24486V10.1235ZM12.4281 10.1235H10.4235V16.8004H12.4079V13.2966C12.4079 11.3447 14.8104 11.1634 14.8104 13.2966V16.8004H16.8V12.5713C16.8 9.28086 13.244 9.40352 12.4079 11.0194L12.4281 10.1235Z" fill="white"/>
</svg>

<svg xmlns="http://www.w3.org/2000/svg" width="24" height="24" fill="none" viewBox="0 0 24 24"><circle cx="12" cy="12.001" r="11.7" fill="#075430" stroke="#fff" stroke-width=".6"/><path fill="#fff" d="M9.215 8.268a1.1 1.1 0 0 1-.296.754.98.98 0 0 1-.712.312.98.98 0 0 1-.712-.313 1.1 1.1 0 0 1-.295-.754 1.1 1.1 0 0 1 .295-.755.98.98 0 0 1 .713-.312.98.98 0 0 1 .712.313c.189.2.295.472.295.755m.03 1.855H7.23V16.8h2.015zm3.183 0h-2.005V16.8h1.985v-3.503c0-1.952 2.402-2.134 2.402 0V16.8h1.99v-4.229c0-3.29-3.556-3.167-4.392-1.552z"/></svg>
